svgs/ebay.svg

<svg xmlns="http://www.w3.org/2000/svg" viewBox="0 0 192 192"><path d="M79.098 77.976c-11.641 0-14.647 6.007-14.647 6.007V64.075h-8.262v30.424a17.05 17.05 0 0 0-2.822-9.095 16.99 16.99 0 0 0-16.708-7.428C25.392 77.976 16 82.48 16 97.127c0 11.646 6.385 18.405 21.033 18.405 17.275 0 18.405-11.268 18.405-11.268h-8.64a9.705 9.705 0 0 1-4.122 5.067 9.723 9.723 0 0 1-6.395 1.319 11.296 11.296 0 0 1-5.75-1.178 11.279 11.279 0 0 1-4.393-3.894 11.297 11.297 0 0 1-1.857-5.571q-.034-.499-.019-.999h31.927v9.765l-.378 6.008h8.262l.378-5.256a16.487 16.487 0 0 0 6.502 5.081 16.464 16.464 0 0 0 8.145 1.304c3.38.146 6.735-.664 9.678-2.332a18.062 18.062 0 0 0 9.105-16.824 17.751 17.751 0 0 0-2.167-9.634 17.751 17.751 0 0 0-16.616-9.144ZM24.262 93.748c.097-1.944.703-3.83 1.755-5.469a11.126 11.126 0 0 1 4.252-3.86 11.111 11.111 0 0 1 5.615-1.212q.198.01.397.025c1.94-.19 3.898.174 5.634 1.056a10.262 10.262 0 0 1 5.634 9.46Zm52.582 16.528a12.214 12.214 0 0 1-12.427-11.985q-.01-.582.034-1.164a12.238 12.238 0 0 1 1.227-6.695 12.256 12.256 0 0 1 4.601-5.024 12.244 12.244 0 0 1 6.565-1.798 11.996 11.996 0 0 1 6.516 1.653 12.026 12.026 0 0 1 5.881 11.491 12.585 12.585 0 0 1-1.202 6.39 12.5 12.5 0 0 1-4.238 4.936 12.519 12.519 0 0 1-6.138 2.158q-.407.033-.819.038Z"/><path d="m167.36 79.474-13.518 27.045-13.9-27.045h-9.387l1.552 2.894a20.156 20.156 0 0 0-14.323-4.392c-17.275 0-18.026 9.386-18.026 10.516h8.261s.752-5.26 9.014-5.26c11.641 0 10.138 9.013 10.138 9.013h-10.138c-13.145 0-19.908 4.131-19.908 11.646 0 7.51 6.385 12.019 15.025 12.019 12.02 0 15.399-6.385 15.399-6.385l.378 5.256h7.511V91.493a16.25 16.25 0 0 0-.408-3.689l14.303 26.603-6.758 13.518h9.013L176 79.474Zm-53.333 31.176c-6.008 0-8.635-3.006-8.635-6.759 0-6.386 9.013-6.386 21.784-6.386a11.8 11.8 0 0 1-1.256 6.919 11.764 11.764 0 0 1-4.975 4.97 11.766 11.766 0 0 1-6.918 1.256Z"/></svg>

<svg
    xmlns="http://www.w3.org/2000/svg"
    viewBox="0 0 192 192"
    id="vector">
    <g id="group">
        <path
            id="path"
            d="M 79.098 77.976 C 67.457 77.976 64.451 83.983 64.451 83.983 L 64.451 64.075 L 56.189 64.075 L 56.189 94.499 C 56.131 91.261 55.152 88.104 53.367 85.404 C 51.578 82.703 49.052 80.57 46.095 79.251 C 43.137 77.937 39.859 77.491 36.659 77.976 C 25.392 77.976 16 82.48 16 97.127 C 16 108.773 22.385 115.532 37.033 115.532 C 54.308 115.532 55.438 104.264 55.438 104.264 L 46.798 104.264 C 46.051 106.378 44.596 108.167 42.676 109.331 C 40.761 110.495 38.502 110.96 36.281 110.65 C 34.293 110.771 32.31 110.364 30.531 109.472 C 28.747 108.584 27.234 107.241 26.138 105.578 C 25.038 103.915 24.398 101.995 24.281 100.007 Q 24.247 99.508 24.262 99.008 L 56.189 99.008 L 56.189 108.773 L 55.811 114.781 L 64.073 114.781 L 64.451 109.525 C 66.153 111.741 68.388 113.491 70.953 114.606 C 73.513 115.726 76.315 116.172 79.098 115.91 C 82.478 116.056 85.833 115.246 88.776 113.578 C 91.714 111.91 94.128 109.447 95.738 106.47 C 97.348 103.498 98.09 100.128 97.881 96.754 C 98.085 93.404 97.333 90.063 95.714 87.12 C 94.095 84.182 91.67 81.758 88.732 80.143 C 85.789 78.524 82.448 77.772 79.098 77.976 Z M 24.262 93.748 C 24.359 91.804 24.965 89.918 26.017 88.279 C 27.069 86.645 28.538 85.312 30.269 84.419 C 32 83.532 33.939 83.11 35.884 83.207 Q 36.082 83.217 36.281 83.232 C 38.221 83.042 40.179 83.406 41.915 84.288 C 43.656 85.166 45.11 86.524 46.109 88.201 C 47.108 89.874 47.607 91.799 47.549 93.748 Z M 76.844 110.276 C 74.701 110.315 72.587 109.787 70.71 108.749 C 68.839 107.712 67.268 106.199 66.162 104.366 C 65.057 102.528 64.456 100.434 64.417 98.291 Q 64.407 97.709 64.451 97.127 C 64.218 94.824 64.645 92.502 65.678 90.432 C 66.705 88.356 68.301 86.616 70.279 85.408 C 72.252 84.201 74.531 83.576 76.844 83.61 C 79.127 83.527 81.392 84.104 83.36 85.263 C 85.328 86.422 86.928 88.119 87.971 90.15 C 89.013 92.187 89.455 94.475 89.241 96.754 C 89.406 98.95 88.994 101.156 88.039 103.144 C 87.084 105.137 85.624 106.839 83.801 108.08 C 81.983 109.326 79.864 110.073 77.663 110.238 Q 77.256 110.271 76.844 110.276 Z"
            fill="#000000"
            stroke-width="12"/>
        <path
            id="path_1"
            d="M 167.36 79.474 L 153.842 106.519 L 139.942 79.474 L 130.555 79.474 L 132.107 82.368 C 128.078 79.12 122.943 77.544 117.784 77.976 C 100.509 77.976 99.758 87.362 99.758 88.492 L 108.019 88.492 C 108.019 88.492 108.771 83.232 117.033 83.232 C 128.674 83.232 127.171 92.245 127.171 92.245 L 117.033 92.245 C 103.888 92.245 97.125 96.376 97.125 103.891 C 97.125 111.401 103.51 115.91 112.15 115.91 C 124.17 115.91 127.549 109.525 127.549 109.525 L 127.927 114.781 L 135.438 114.781 L 135.438 91.493 C 135.443 90.252 135.307 89.016 135.03 87.804 L 149.333 114.407 L 142.575 127.925 L 151.588 127.925 L 176 79.474 Z M 114.027 110.65 C 108.019 110.65 105.392 107.644 105.392 103.891 C 105.392 97.505 114.405 97.505 127.176 97.505 C 127.472 99.886 127.03 102.301 125.92 104.424 C 124.805 106.548 123.074 108.284 120.945 109.394 C 118.822 110.509 116.407 110.945 114.027 110.65 Z"
            fill="#000000"
            stroke-width="12"/>
    </g>
</svg>
